svg/fluentui-system-icons/ic_fluent_text_bullet_list_square_clock_20_filled.svg

<svg width="20" height="20" viewBox="0 0 20 20" fill="none" xmlns="http://www.w3.org/2000/svg">
<path d="M5.75 3C4.23122 3 3 4.23122 3 5.75V14.25C3 15.7688 4.23122 17 5.75 17H9.59971C9.21628 16.2499 9 15.4002 9 14.5C9 13.1704 9.47182 11.9509 10.2572 11H9.5C9.22386 11 9 10.7761 9 10.5C9 10.2239 9.22386 10 9.5 10H11.3369C12.2316 9.36997 13.3226 9 14.5 9C15.4002 9 16.2499 9.21628 17 9.59971V5.75C17 4.23122 15.7688 3 14.25 3H5.75ZM7.5 7.25C7.5 7.66421 7.16421 8 6.75 8C6.33579 8 6 7.66421 6 7.25C6 6.83579 6.33579 6.5 6.75 6.5C7.16421 6.5 7.5 6.83579 7.5 7.25ZM6.75 9.5C7.16421 9.5 7.5 9.83579 7.5 10.25C7.5 10.6642 7.16421 11 6.75 11C6.33579 11 6 10.6642 6 10.25C6 9.83579 6.33579 9.5 6.75 9.5ZM7.5 13.25C7.5 13.6642 7.16421 14 6.75 14C6.33579 14 6 13.6642 6 13.25C6 12.8358 6.33579 12.5 6.75 12.5C7.16421 12.5 7.5 12.8358 7.5 13.25ZM9.5 8C9.22386 8 9 7.77614 9 7.5C9 7.22386 9.22386 7 9.5 7H13.5C13.7761 7 14 7.22386 14 7.5C14 7.77614 13.7761 8 13.5 8H9.5ZM14.5 19C16.9853 19 19 16.9853 19 14.5C19 12.0147 16.9853 10 14.5 10C12.0147 10 10 12.0147 10 14.5C10 16.9853 12.0147 19 14.5 19ZM14 12.5C14 12.2239 14.2239 12 14.5 12C14.7761 12 15 12.2239 15 12.5V14H16C16.2761 14 16.5 14.2239 16.5 14.5C16.5 14.7761 16.2761 15 16 15H14.5C14.2239 15 14 14.7761 14 14.5V12.5Z" fill="#212121"/>
</svg>

<svg xmlns="http://www.w3.org/2000/svg" width="20" height="20"><path d="M5.75 3A2.75 2.75 0 0 0 3 5.75v8.5A2.75 2.75 0 0 0 5.75 17H9.6a5.47 5.47 0 0 1-.6-2.5c0-1.33.472-2.55 1.257-3.5H9.5a.5.5 0 0 1 0-1h1.837c.895-.63 1.986-1 3.163-1 .9 0 1.75.216 2.5.6V5.75A2.75 2.75 0 0 0 14.25 3h-8.5ZM7.5 7.25a.75.75 0 1 1-1.5 0 .75.75 0 0 1 1.5 0ZM6.75 9.5a.75.75 0 1 1 0 1.5.75.75 0 0 1 0-1.5Zm.75 3.75a.75.75 0 1 1-1.5 0 .75.75 0 0 1 1.5 0ZM9.5 8a.5.5 0 0 1 0-1h4a.5.5 0 0 1 0 1h-4Zm5 11a4.5 4.5 0 1 0 0-9 4.5 4.5 0 0 0 0 9Zm-.5-6.5a.5.5 0 0 1 1 0V14h1a.5.5 0 0 1 0 1h-1.5a.5.5 0 0 1-.5-.5v-2Z"/></svg>
